X:135
T:La Quinte Estampie Real
L:1/8
M:3/4
N:Anon French C13
Z:Andy Hornby
%%TUNEURL: http://www.leeds.ac.uk/music/Info/RRTuneBk/gettune/00000d9e.html
%%ID:00000d9e
K:C
c2c2B2|c2dc d2|e2d2c2|BA G4|c2c2B2|A2BA Bc|d2c4|c6:|
|:e4A2|e4d2|fe de cd|c4z2|g4f2|e4d2|
cB c2d2|e4z2|c2c2B2|A2BA Bc|d2c4|c6:|
